X:2     %Music
T:CATSJIG     %Tune name
C:     %Tune composer
N:     %Tune infos
Q:1/4=150     %Tempo
M:6/8     %Meter
L:1/8     %
K:G
BGG G2 A |BAB d2 B |cBc Adc |BGG G3 |BGG G2 A |BAB d2 B |cBc Adc |BGG G2 z |]



